assets/Meat on bone/Flat/meat_on_bone_flat.svg

<svg width="32" height="32" viewBox="0 0 32 32" fill="none" xmlns="http://www.w3.org/2000/svg">
<path d="M18.6174 6.57876C15.9574 5.11876 12.6474 5.58876 10.4974 7.72876L7.7274 7.80582V10.5088C5.5774 12.6588 5.1074 15.9688 6.5774 18.6288C8.4274 21.9888 11.1974 24.7588 14.5574 26.6088C17.2174 28.0688 20.5274 27.5988 22.6774 25.4588L25.4574 22.6788C27.6074 20.5288 28.0774 17.2188 26.6074 14.5588C24.7574 11.1988 21.9874 8.42876 18.6174 6.57876Z" fill="#6D4534"/>
<path d="M22.1574 14.8688C21.1674 14.8688 20.2474 15.2488 19.5474 15.9488L15.9474 19.5488C15.2474 20.2488 14.8674 21.1688 14.8674 22.1588C14.8674 23.1488 15.2474 24.0688 15.9474 24.7688C16.6474 25.4688 17.5674 25.8488 18.5574 25.8488C19.5474 25.8488 20.4674 25.4688 21.1674 24.7688L24.7674 21.1688C25.4674 20.4688 25.8474 19.5488 25.8474 18.5588C25.8474 17.5688 25.4674 16.6488 24.7674 15.9488C24.0674 15.2588 23.1374 14.8688 22.1574 14.8688Z" fill="#F8312F"/>
<path d="M10.1774 2.9488C11.0874 3.9888 11.0974 5.5688 10.1874 6.6188C9.9974 6.8288 10.0174 7.1388 10.2074 7.3388L10.5478 7.67915C10.5309 7.69558 10.5141 7.71212 10.4974 7.72876L7.7274 10.5088L7.68259 10.554L7.3374 10.2088C7.1374 10.0188 6.8274 9.9988 6.6174 10.1888C5.5674 11.0988 3.9874 11.0888 2.9474 10.1788C1.7274 9.0988 1.6874 7.2388 2.8174 6.1088C3.3474 5.5688 4.0474 5.2988 4.7474 5.2888C5.0374 5.2888 5.2774 5.0488 5.2874 4.7488C5.2974 4.0488 5.5674 3.3488 6.1074 2.8088C7.2374 1.6888 9.0974 1.7288 10.1774 2.9488Z" fill="#D3D3D3"/>
<path d="M25.3273 21.8488C26.3873 20.9288 27.9773 20.8888 29.0373 21.8088C30.2673 22.8888 30.3173 24.7588 29.1873 25.8788C28.6473 26.4188 27.9473 26.6888 27.2473 26.6988C26.9473 26.7088 26.7073 26.9488 26.7073 27.2388C26.6973 27.9488 26.4273 28.6388 25.8873 29.1788C24.7473 30.3188 22.8773 30.2688 21.8073 29.0388C20.8873 27.9788 20.9273 26.3888 21.8473 25.3288C22.0073 25.1488 21.9973 24.8788 21.8273 24.7088L18.6373 21.5188C18.2273 21.1088 18.2273 20.4388 18.6373 20.0288L20.0273 18.6388C20.4373 18.2288 21.1073 18.2288 21.5173 18.6388L24.7073 21.8288C24.8773 21.9988 25.1473 22.0088 25.3273 21.8488Z" fill="#D3D3D3"/>
</svg>

<svg xmlns="http://www.w3.org/2000/svg" width="32" height="32" fill="none"><path fill="#6D4534" d="M18.617 6.579a6.848 6.848 0 0 0-8.12 1.15l-2.77.077v2.703a6.818 6.818 0 0 0-1.15 8.12 20.28 20.28 0 0 0 7.98 7.98c2.66 1.46 5.97.99 8.12-1.15l2.78-2.78a6.818 6.818 0 0 0 1.15-8.12 20.241 20.241 0 0 0-7.99-7.98Z"/><path fill="#F8312F" d="M22.157 14.869c-.99 0-1.91.38-2.61 1.08l-3.6 3.6c-.7.7-1.08 1.62-1.08 2.61 0 .99.38 1.91 1.08 2.61.7.7 1.62 1.08 2.61 1.08.99 0 1.91-.38 2.61-1.08l3.6-3.6c.7-.7 1.08-1.62 1.08-2.61 0-.99-.38-1.91-1.08-2.61-.7-.69-1.63-1.08-2.61-1.08Z"/><path fill="#D3D3D3" d="M10.177 2.949c.91 1.04.92 2.62.01 3.67-.19.21-.17.52.02.72l.34.34a5.75 5.75 0 0 0-.05.05l-2.77 2.78-.044.045-.346-.345a.526.526 0 0 0-.72-.02c-1.05.91-2.63.9-3.67-.01a2.792 2.792 0 0 1-.13-4.07c.53-.54 1.23-.81 1.93-.82.29 0 .53-.24.54-.54.01-.7.28-1.4.82-1.94a2.8 2.8 0 0 1 4.07.14ZM25.327 21.849c1.06-.92 2.65-.96 3.71-.04 1.23 1.08 1.28 2.95.15 4.07-.54.54-1.24.81-1.94.82a.55.55 0 0 0-.54.54c-.01.71-.28 1.4-.82 1.94a2.788 2.788 0 0 1-4.08-.14c-.92-1.06-.88-2.65.04-3.71a.45.45 0 0 0-.02-.62l-3.19-3.19c-.41-.41-.41-1.08 0-1.49l1.39-1.39c.41-.41 1.08-.41 1.49 0l3.19 3.19c.17.17.44.18.62.02Z"/></svg>
